assets/icons/icon_album.svg

<?xml version="1.0" encoding="UTF-8"?>
<svg xmlns="http://www.w3.org/2000/svg" viewBox="0 0 48 48">
  <defs>
    <style>
      .cls-1 {
        fill: none;
        opacity: .2;
      }
    </style>
  </defs>
  <g id="guid">
    <rect class="cls-1" width="48" height="48"/>
    <rect class="cls-1" x="4" y="4" width="40" height="40"/>
  </g>
  <g id="Layer_2" data-name="Layer 2">
    <g>
      <path d="M35.36,6H12.56c-4.2,0-7.6,3.58-7.6,8v20c0,1.09.21,2.13.58,3.08.51,1.29,1.34,2.41,2.37,3.25.31.25.63.48.97.67,1.1.64,2.35,1,3.68,1h22.8c1.34,0,2.58-.36,3.68-1,.07-.04.14-.08.21-.13.84-.52,1.57-1.21,2.16-2.02.11-.15.21-.3.3-.46.24-.37.45-.77.61-1.19.15-.35.27-.7.36-1.07.06-.2.1-.41.14-.62.1-.47.14-.96.14-1.46V14c0-4.42-3.4-8-7.6-8ZM39.33,36.73c-.07.14-.16.27-.26.4-.43.55-.96,1.02-1.57,1.34-.64.34-1.37.53-2.14.53H12.56c-2.62,0-4.75-2.24-4.75-5v-5.15l8.24-5.25c.59-.38,1.5-.6,2.45-.6s1.86.22,2.45.6l18.9,12.03c-.13.39-.31.76-.52,1.1ZM22.56,21.07c-1.12-.71-2.59-1.07-4.06-1.07s-2.94.36-4.06,1.07l-6.63,4.22v-11.29c0-2.76,2.13-5,4.75-5h22.8c2.62,0,4.75,2.24,4.75,5v18.24l-17.55-11.17Z"/>
      <path d="M31.96,11c-3.31,0-6,2.69-6,6s2.69,6,6,6,6-2.69,6-6-2.69-6-6-6ZM31.96,20c-1.65,0-3-1.35-3-3s1.35-3,3-3,3,1.35,3,3-1.35,3-3,3Z"/>
    </g>
  </g>
</svg>

<svg width="48" height="48" viewBox="0 0 48 48" fill="none" xmlns="http://www.w3.org/2000/svg">
<g clip-path="url(#clip0_2188_3043)">
<path d="M35.36 6H12.56C8.35996 6 4.95996 9.58 4.95996 14V34C4.95996 35.09 5.16996 36.13 5.53996 37.08C6.04996 38.37 6.87996 39.49 7.90996 40.33C8.21996 40.58 8.53996 40.81 8.87996 41C9.97996 41.64 11.23 42 12.56 42H35.36C36.7 42 37.94 41.64 39.04 41C39.11 40.96 39.18 40.92 39.25 40.87C40.09 40.35 40.82 39.66 41.41 38.85C41.52 38.7 41.62 38.55 41.71 38.39C41.95 38.02 42.16 37.62 42.32 37.2C42.47 36.85 42.59 36.5 42.68 36.13C42.74 35.93 42.78 35.72 42.82 35.51C42.92 35.04 42.96 34.55 42.96 34.05V14C42.96 9.58 39.56 6 35.36 6ZM39.33 36.73C39.26 36.87 39.17 37 39.07 37.13C38.64 37.68 38.11 38.15 37.5 38.47C36.86 38.81 36.13 39 35.36 39H12.56C9.93996 39 7.80996 36.76 7.80996 34V28.85L16.05 23.6C16.64 23.22 17.55 23 18.5 23C19.45 23 20.36 23.22 20.95 23.6L39.85 35.63C39.72 36.02 39.54 36.39 39.33 36.73ZM22.56 21.07C21.44 20.36 19.97 20 18.5 20C17.03 20 15.56 20.36 14.44 21.07L7.80996 25.29V14C7.80996 11.24 9.93996 9 12.56 9H35.36C37.98 9 40.11 11.24 40.11 14V32.24L22.56 21.07Z" fill="black"/>
<path d="M31.96 11C28.65 11 25.96 13.69 25.96 17C25.96 20.31 28.65 23 31.96 23C35.27 23 37.96 20.31 37.96 17C37.96 13.69 35.27 11 31.96 11ZM31.96 20C30.31 20 28.96 18.65 28.96 17C28.96 15.35 30.31 14 31.96 14C33.61 14 34.96 15.35 34.96 17C34.96 18.65 33.61 20 31.96 20Z" fill="black"/>
</g>
<defs>
<clipPath id="clip0_2188_3043">
<rect width="48" height="48" fill="white"/>
</clipPath>
</defs>
</svg>
